X:1
T:Title
%%score { ( 1 4 ) | ( 2 3 ) }
L:1/8
Q:1/4=100
M:6/8
K:Eb
V:1 treble nm="Grand Piano"
V:4 treble 
V:2 bass 
V:3 bass 
V:1
 GGG G_G=G | [_Gc]3 [=GB]3 | [G,E]3 [B,DF]3 | G6 | GGG G_G=G | [_Gc]3 [=GB]2 [_Ge] | [Fd]3 [Ec]3 | %7
w: J.~Lincoln~Hall * * * * *|||||||
 [B,DB]6 | [DA][FA][DA] [CA][DA][CA] | [CA]3 [B,G]3 | [DA][FA][DA] [CA][DA][CA] | [B,G]6 | %12
w: |||||
 GGG GAB | [Bd]2 c B2 A | G3 [DF]3 |[M:5/8] [B,E]-[B,E]- [B,E]3 |[M:1/8] [GB] | %17
w: |||||
[M:3/4] [GB]3 [EG]3 | [GB]4- [GB][_de] | [ce]3 [Ac]3 | [Ge]6 | GG GG _G=G | [_Gc]3 [=GB]2 G | %23
w: ||||||
 E3 G3 | dc BA G[DB] | [EB]3 [EG]3 | [GB]4- [GB][Ge] | f3 e3 | c6 | cc ce dc | B3 A2 [CFA] | %31
w: ||||||||
 [B,EG]3 [A,DF]3 | [E,G,B,E]6 |] %33
w: ||
V:2
 [E,E][B,E][B,E] [E,E][B,E][B,E] | E,=A,A, E,B,B, | E,3 B,,3 | [E,B,E]6 | %4
 [E,E][B,E][B,E] [E,E][B,E][B,E] | E,=A,A, E,B,[E,B,] | [F,B,]3 [F,=A,]3 | B,,6 | B,,B,B, B,,B,B, | %9
 E,,E,E, E,,E,E, | B,,B,B, B,,B,B, | E,,E,E, E,,E,E, | [E,E][B,E][B,E] [E,E][K:treble][B,F][B,G] | %13
 A,,A,[K:treble][A,A] [G,_D=E]2 [A,CF] | [B,E]3 [B,,A,]3 |[M:5/8] [E,G,]-[E,G,]- [E,G,]3 | %16
[M:1/8] [E,E] |[M:3/4] [E,E]3 [E,B,]3 | [E,E]4- [E,E][E,E] | [A,E]3 [A,E]3 | [E,E]6 | z2 z B, z2 | %22
 [E,=A,]3 [E,B,]2 [E,B,E] | [F,=A,]3 [F,A,E]3 | [B,,B,]4- [B,,B,][B,,A,] | [E,G,]3 [E,B,]3 | %26
 [E,B,]4- [E,B,][E,=B,] | [A,CA]3 [A,CA]3 | [A,EA]6 | [=A,E_G][A,EG] [A,EG][B,E=G] [B,EG][B,EG] | %30
 [G,_D=E]3 [A,CF]2[K:bass] A,, | B,,3 B,,3 | E,,6 |] %33
V:3
 x6 | x6 | x6 | x6 | x6 | x6 | x6 | x6 | x6 | x6 | x6 | x6 | x4[K:treble] x2 | x2[K:treble] x4 | %14
 x6 |[M:5/8] x5 |[M:1/8] x |[M:3/4] x6 | x6 | x6 | x6 | %21
 [E,B,E][E,B,E] [E,B,E][E,E]- [E,=A,E][E,B,E] | x6 | x6 | x6 | x6 | x6 | x6 | x6 | x6 | %30
 x5[K:bass] x | x6 | x6 |] %33
V:4
 x6 | x6 | x6 | x6 | x6 | x6 | x6 | x6 | x6 | x6 | x6 | x6 | x6 | x6 | x6 |[M:5/8] x5 |[M:1/8] x | %17
[M:3/4] x6 | x6 | x6 | x6 | x6 | x6 | x6 | [DF]6 | x6 | x6 | x6 | x6 | x6 | x6 | x6 | x6 |] %33

